X:25
T:The Rose Tree
Z:Jack Campin  *  May 2000  *  http://www.campin.me.uk/
M:2/4
L:1/8
C:Carr (1796)
N:"The Old Lea Rigg" in Scottish sources of the mid-18th century
K:D
f/e/|dB AF|A>B AB|d2 f/e/d/e/|fe ef/e/|dB AF|A>B AB|d2 f/e/d/e/|fd d:|
d   |fe fg|a2  gf|eb ba      |be ef/e/|dB AF|A>B AB|d2 f/e/d/e/|fd d:|

